X:1
T:O bel diadema
T:O bel diadema
T:Tomaso Cecchino
T:Source : Canti Spirituali a uno, due et tre voci + BC ---Venetia---G.Vincenti---1614. Editor : André Vierendeels (26/10/16).
T:Notes : Original clefs : C1, F4 Editorial accidentals above the staff Figures in BC are notated in original print
T:©
T:©
C:Tomaso Cecchino
Z:©
%%score 1 2
L:1/8
Q:1/4=120
M:4/4
K:F
V:1 treble nm="Soprano" snm="S"
V:2 bass nm="BC"
V:1
 c6 dc | B2 A2 G4 |[K:C] G2 c4 BB | B2 ^c2 d3 B | cBcA B3 A | BABG A4 |[K:F] A2 d2 B3 B | %7
w: O bel dia-|de- ma sa-|cro, che con pun-|gen- ti spi- *|||ne, or- na- te'al|
 A3 B G2 E2 | FGAB c2 B2 | AGAF G4 | F8 :: z2 FG _E2 DC | D4 D2 G2- | G2 B2 A4 | G8 :: z GGG G3 A | %16
w: mio Gie- su le|tem- * * * * pie'il|cri- * * * *|ne,|ri- ve- ren- te v'a-|do- ro'el cor|_ con- sa-|cro,|e s'al- tro don chie-|
 A3 B/c/ A2 c2 | B2 A2 G3 F | E4 D4 | z2 D2 E4 | G2 GA F2 G2 |"^-natural" AB c4 B2 | c2 cd B3 c | %23
w: de- * * te, che|piu pre- tio- so|fi- a,|a voi,|voi lo da- re- te'in|ve- ce mi- *|a lo da- re- re'in|
 A>B cF G4 | F8 |] %25
w: ve- * * ce mi-|a.|
V:2
 F,8 | G,2 F,2 C,4 |[K:C] C,4 E,4 |"^#""^#" E,2 A,,2 D,2 G,,2 | A,,4 G,,4 |"^#" G,,4 D,4 | %6
[K:F] D,4 G,,4 | F,,4 C,4 | D,4 A,,2 G,,2 | F,,4 C,4 | F,,8 :: B,,4 C,4 |"^-natural" G,,4 G,,4 | %13
"^b" C,2 G,,2 D,4 | G,,8 :: C,8 | F,,8 | G,,8 |"^#" A,,4 D,,4 |"^-natural" G,,4 C,4 | C,4 D,2 C,2 | %21
 F,2 E,2 G,4 | C,2 F,2 G,4 | F,4 C,4 | F,,8 |] %25

